X: 25100
T: Maighdeanan Na H-Àiridh
R: waltz
M: 3/4
K: Cmajor
G|:ce|"F/C" f2 "C"e2 dB|"F/C"A2 "B/G"B2 AE|"C"G2 "F/C"A2 c>B|"C"c3G ce|
"F/C"f2 "C"e2 dB|"F/C"A2 "G/C"B2 AE|"C"G2 A2 cB|(c2 c2) ce|
"C"g3g "F"af|"G"d2 d2 "C7/E"eg|"F"(a2 a2) "C/E"ge|"D7sus/G"g3f ed|
"C/E"c2 "C"g2 "C7"ec|"F"A2 Bc "C/E"ec|"Csus/G"G2 "F/G"A2 cB|"C"(c2 c2):|

